X:113
T:Furnill's Frolic
R:slip jig
B:Goodman Collection
D:Peter Carberrry & P\'adraig McGovern
Z:id:hn-slipjig-113
M:9/8
L:1/8
K:Dmix
AdA GAG F2G | ~A3 AFD EFG | AdA GAG FAd | ~c3 AGE GEC :|
|: F2D E/F/GE DE/F/G | ~A3 AFD EFG | F/G/AD E/F/GE DAd | ~c3 AGE GEC :|
|: f2d cAG F2G | ~A3 AFD EFA | f2A dge fAB | cec AGE GEC :|

